X: 21753
T: SCUPS COME -- Hornpipe
R: hornpipe, reel
B: K\"ohler's Violin Repository, v.2, 1885 p.175 #3
F: http://www.archive.org/details/klersviolinrepos02rugg
Z: 2012 John Chambers <jc:trillian.mit.edu>
N: There's a half-beat missing at the start of the 2nd part.
M: C|
L: 1/8
K: D
uA,2 |\
D2(FE) DFAc | dcdf ecAF | GBEG FADF | GFED CEA,C |\
D2(FE) DFAc | dcdf ecAF | GBEG FADF | EDCE D2 :| uA, |
A,B,CD EFGE | FDEF GABc | dcdA cdef | gfge dcBA |\
defd   ceAc | dcdB AFDF | GBEG FADF | EDCE D2 :|

%%sep 2 1 500

